icons/label-arrow-left-outline.svg

<svg xmlns="http://www.w3.org/2000/svg" width="24" height="24" viewBox="0 0 24 24">
  <path d="M14.1715729,4 C14.9672223,4 15.7302841,4.31607052 16.2928932,4.87867966 L16.2928932,4.87867966 L21.2928932,9.87867966 C22.4644661,11.0502525 22.4644661,12.9497475 21.2928932,14.1213203 L21.2928932,14.1213203 L16.2928932,19.1213203 C15.7302841,19.6839295 14.9672223,20 14.1715729,20 L14.1715729,20 L5,20 C3.34314575,20 2,18.6568542 2,17 L2,17 L2,7 C2,5.34314575 3.34314575,4 5,4 L5,4 Z M14.1715729,6 L5,6 C4.44771525,6 4,6.44771525 4,7 L4,7 L4,17 C4,17.5522847 4.44771525,18 5,18 L5,18 L14.1715729,18 C14.4367894,18 14.6911433,17.8946432 14.8786797,17.7071068 L14.8786797,17.7071068 L19.8786797,12.7071068 C20.2692039,12.3165825 20.2692039,11.6834175 19.8786797,11.2928932 L19.8786797,11.2928932 L14.8786797,6.29289322 C14.6911433,6.10535684 14.4367894,6 14.1715729,6 L14.1715729,6 Z M6.001,12.059 L6.002,12.059 L6,12.018 L6,12 L6.00004511,11.9904013 L6.00018018,11.980824 L6.0017331,11.9409686 C6.00232561,11.9308872 6.00307004,11.9208131 6.00399798,11.909968 L6.00399798,11.909968 L6.0110178,11.8515331 C6.01362808,11.834051 6.01670217,11.8166247 6.02016515,11.7992059 C6.0246398,11.7772539 6.02983363,11.7555635 6.03584514,11.734007 C6.04009773,11.7185367 6.04472872,11.7031487 6.04954668,11.6882636 C6.05612249,11.6682023 6.06331574,11.6484208 6.07122549,11.628664 L6.07122549,11.628664 L6.09365378,11.5769009 C6.10337664,11.5561086 6.11379392,11.5357061 6.12467117,11.5159379 L6.12467117,11.5159379 L6.14606743,11.4793398 C6.1617187,11.453725 6.17849009,11.4288693 6.19633458,11.4046934 L6.19633458,11.4046934 L6.22,11.374 L6.216,11.378 L6.21968877,11.374551 L6.232,11.359 L6.24220802,11.347434 L6.24220802,11.347434 L6.29289322,11.2928932 L9.29289322,8.29289322 L9.38710056,8.20970461 C9.77939176,7.90467972 10.3466228,7.93240926 10.7071068,8.29289322 C11.0976311,8.68341751 11.0976311,9.31658249 10.7071068,9.70710678 L10.7071068,9.70710678 L9.415,11 L13,11 L13.1166211,11.0067277 C13.6139598,11.0644928 14,11.4871642 14,12 C14,12.5522847 13.5522847,13 13,13 L13,13 L9.415,13 L10.7071068,14.2928932 L10.7902954,14.3871006 C11.0953203,14.7793918 11.0675907,15.3466228 10.7071068,15.7071068 C10.3165825,16.0976311 9.68341751,16.0976311 9.29289322,15.7071068 L9.29289322,15.7071068 L6.29289322,12.7071068 L6.21968877,12.625449 C6.2173721,12.6225624 6.21507113,12.6196628 6.20970461,12.6128994 C6.20517454,12.6070733 6.20071786,12.6012086 6.19631351,12.5951593 C6.17849009,12.5711307 6.1617187,12.546275 6.14599545,12.5207088 C6.13860692,12.5086131 6.13149883,12.4963944 6.12487577,12.484277 C6.11379392,12.4642939 6.10337664,12.4438914 6.09367336,12.4232215 L6.09367336,12.4232215 L6.07110396,12.3710585 C6.06331574,12.3515792 6.05612249,12.3317977 6.04973809,12.3121425 C6.04472872,12.2968513 6.04009773,12.2814633 6.03572097,12.2658396 C6.02983363,12.2444365 6.0246398,12.2227461 6.02024007,12.2007258 C6.01670217,12.1833753 6.01362808,12.165949 6.01101934,12.1489612 C6.00376119,12.1003621 6,12.0506203 6,12 L6.001,12.059 Z"/>
</svg>

<svg xmlns="http://www.w3.org/2000/svg" viewBox="0 0 24 24">
  <path d="M14.17 4a3 3 0 0 1 2.12.88l5 5a3 3 0 0 1 0 4.24l-5 5a3 3 0 0 1-2.12.88H5a3 3 0 0 1-3-3V7a3 3 0 0 1 3-3zm0 2H5a1 1 0 0 0-1 1v10a1 1 0 0 0 1 1h9.17a1 1 0 0 0 .7-.3l5-5a1 1 0 0 0 0-1.4l-5-5a1 1 0 0 0-.7-.3zM6 12.06v-.15l.01-.06a1.1 1.1 0 0 1 .06-.22l.02-.05.03-.06.03-.04.05-.08.02-.03.01-.01.01-.01.05-.06 3-3 .1-.08a1 1 0 0 1 1.32 1.5L9.4 11h3.71a1 1 0 0 1-.12 2H9.41l1.3 1.3.08.09a1 1 0 0 1-1.5 1.32l-3-3-.07-.08a3.01 3.01 0 0 1-.1-.15 1.02 1.02 0 0 1-.03-.06l-.02-.05A.95.95 0 0 1 6 12v.06z"/>
</svg>
